X: 5
T: Sleepy Maggie
R: reel
M: 4/4
L: 1/8
K: Ador
e2 cA eA B/c/d|e2 cA dG B/c/d|e2 cA eA B/c/d|edge dG B/c/d:||:eAcA eA B/c/d|eAcA dG B/c/d|eAcA eA B/c/d|edge dG B/c/d:|


Tune 787	Setting 13919

